X: 1712
T: Sen Gül Eğlen
C: Tanburî Cemil Bey
O: Turkey
F: http://compmusic.upf.edu/node/140
N: mahur--sarki--agiraksak--sen_gul--tanburi_cemil_bey
N: makam= mahur
N: form= sarki
N: usul= agiraksak = 9/4
M: 9/4
L: 1/16
K: C ^9/8f   
Q: 1/4=66
%%MIDI tuningsystem comma53
z2g4fe f3e a3g g3f f3e ag=fe edd^c d4  | 
w:   | 
^cde6 egfe d3/2c/de dc_7/8B4A2 =f3/2e/dc BAGF G4  | 
w:   | 
z2cB c2d2 z2ed e2f2 g3f g2e2 d2c2 B2A2 e4  | \
w:   | 
d3c B2d2 c3B A2c2 B2A2 G2F2 G8 z4  | 
w:   | 
z2g4fe f3e a3g g3f f3e ag=fe edd^c d4  | 
w:   | 
^cde6 egfe d3/2c/de dc_7/8B4A2 =f3/2e/dc BAGF G4  | 
w:   | 
z2cB c2d2 z2ed e2f2 g3f g2e2 d2c2 B2A2 e4  | \
w:   | 
d3c B2d2 c3B A2c2 B2A2 G2F2 G8 z4  | 
w:   | 
g8 z2g4b2 a3g f2a2 g6d2 e2c2  | d2B2 c2A2 z2e4f2 g3f e2f2 ^d4 e4 z4  | 
w:  Ah  sen  gül_ eğ *  *  *  len   |  *  *  *  *  şâd_ i  gâm  *  *  *  ol   | 
f4 g4 g2a2 g2f2 z2g2 f2e2 f3e d4 f2g2  | \
w:  dâ  *  *  *  *  *  dâ *  *  *  *  *  i  | 
f4 g4 z2c'2 b2a2 g3f e2fg f2g4f2 b2ag  | 
w:  ma  *  ma  *  e fen *  *  *  *  dim    | 
g8 z2ag f2ga g2a6 z2c'2 b2a2 g2f2  | \
w:  *  Ağ *  *  la *  yıp  *  ah_  | 
bagf e4 z2e4a2 ^g3b a2g2 =f3e d4 e2^f2  | 
w:  *  *  *  *  *  ey le mek  *  *  *  düş  | 
z2g2 =f2e2 d3c B2g2 ^f2a2 g4 B2d2 c4 d2e2  | \
w:  sün  *  *  *  *  *  *  *  *  *  ah  *  *  ba  | 
d3c B3A G4 A4 A3G F2A2 G6d2 e2f2  | 
w:  na  *  *  *  *  a  câ *  *  *  nım   SAZ  | 
g8 z2ag f2ga g2a6 z2c'2 b2a2 g2f2  | \
w:  *  Ağ *  *  la *  yıp  *  ah_  | 
bagf e4 z2e4a2 ^g3b a2g2 =f3e d4 e2^f2  | 
w:  *  *  *  *  *  ey le mek  *  *  *  düş  | 
z2g2 =f2e2 d3c B2g2 ^f2a2 g4 B2d2 c4 d2e2  | \
w:  sün  *  *  *  *  *  *  *  *  *  ah  *  *  ba  | 
d3c B3A G4 A4 A3G F2A2 G6c2 B2d2  | 
w:  na  *  *  *  *  a  câ *  *  *  nım   SAZ  | 
c8 z2c4d2 e3d c4 f4 g4 f2e2  | d2c2 B2c2 A2e4f2 g3f e4 ^d4 e4 z4  | 
w:  *  Hep  se nin  *  *  ol  |  *  *  *  *  *  sun  bü tün  *  *  zevk_  | 
f4 g4 g2a2 g2f2 z2g2 f2e2 f3e d4 f2g2  | \
w:  u  *  *  *  *  *  u  *  *  *  *  *  sa  | 
f4 g4 z2c'2 b2a2 g3f e2fg f2g4f2 b2ag  | 
w:  fâ  *  fâ  *  e fen *  *  *  *  dim    | 
g8 z2ag f2ga g2a6 z2c'2 b2a2 g2f2  | \
w:  *  Ağ *  *  la *  yıp  *  ah_  | 
bagf e4 z2e4a2 ^g3b a2g2 =f3e d4 e2^f2  | 
w:  *  *  *  *  *  ey le mek  *  *  *  düş  | 
z2g2 =f2e2 d3c B2g2 ^f2a2 g4 B2d2 c4 d2e2  | \
w:  sün  *  *  *  *  *  *  *  *  *  ah  *  *  ba  | 
d3c B3A G4 A4 A3G F2A2 G6d2 e2f2  | 
w:  na  *  *  *  *  a  câ *  *  *  nım   SAZ  | 
g8 z2ag f2ga g2a6 z2c'2 b2a2 g2f2  | \
w:  *  Ağ *  *  la *  yıp  *  ah_  | 
bagf e4 z2e4a2 ^g3b a2g2 =f3e d4 e2^f2  | 
w:  *  *  *  *  *  ey le mek  *  *  *  düş  | 
z2g2 =f2e2 d3c B2g2 ^f2a2 g4 B2d2 c4 d2e2  | \
w:  sün  *  *  *  *  *  *  *  *  *  ah  *  *  ba  | 
d3c B3A G4 A4 A3G F2A2 G6|
w:  na  *  *  *  *  a  câ *  *  *  nım    | 


